X:1
T:Title
%%score { ( 1 3 ) | ( 2 4 ) }
L:1/8
Q:1/4=100
M:4/4
K:Ab
V:1 treble nm="Grand Piano"
V:3 treble 
V:2 bass 
V:4 bass 
V:1
 [Ec]2 [DB]>[CA] [Fd]2 [Ec]>[=D_c] | [Ec]4 [CA]4 | [FA]2 [FG]>[FA] [=EB]2 [FA]>[DF] | [CE]6 z2 | %4
 c2 B>A d2 c>B | e4 [Ec]4 | A2 G>A [=Dc]2 [DB]>[DA] | B6 z2 | E2 F>G A2 G>A | B4 [CA]4 | %10
 A2 B>c d2 [Gd]>[Gd] | c6 z2 | e2 dc c2 Bc | e4 z4 | %14
[M:17/16] .[Ec]3/2 z/ z/ z/ z (3z/4 A/4-[Ac]/4B/-B/-B-<B[CA] |[M:4/4] [CA]6 z2 |] %16
V:2
 [A,,A,]2 [A,,A,]>[A,,A,] [A,,A,]2 [A,,A,]>[A,,A,] | [A,,A,]4 [A,,A,]4 | %2
 [D,A,]2 [D,B,]>[D,A,] [D,G,]2 [D,A,]>[D,A,] | [A,,A,]6 z2 | %4
 [A,E]2 [A,DE]>[A,CE] [A,FA]2 [A,EA]>[K:bass][A,DE] | [A,CE]4 [A,,A,]4 | %6
 [F,A,C]2 [F,A,C]>[F,A,C] [B,,A,]2 [B,,A,]>[B,,A,] | [E,G,E]6 z2 | %8
 [G,B,D]2 [G,B,D]>[G,B,E] [F,A,C]2 [F,A,C]>[F,A,C] | [E,G,D]4 [A,,A,]4 | %10
 [A,CE]2 [A,DE]>[A,CE] [G,B,E]2 [E,B,]>[E,B,] | [A,E]6 z2 | %12
 [A,CE]2 [A,FA][A,EA] [A,EA]2 [A,DE][K:bass][A,CE] | z2 _G2 D,2 [=D,A,]2 | %14
[M:17/16] [E,A,]/-[E,A,]/-[E,A,]-<[E,A,] z/ z [E,G,D]/-[E,G,D]/-[E,G,D]-<[E,G,D][A,,E,] | %15
[M:4/4] [A,,E,]6 z2 |] %16
V:3
 x8 | x8 | x8 | x8 | x8 | x8 | x8 | x8 | x8 | x8 | x8 | x8 | x8 | E2 z2 [A,FA]2 [FB]2 | %14
[M:17/16] x17/2 |[M:4/4] x8 |] %16
V:4
 x8 | x8 | x8 | x8 | x15/2[K:bass] x/ | x8 | x8 | x8 | x8 | x8 | x8 | x8 | x7[K:bass] x | %13
 [C,A,]4 z4 |[M:17/16] x17/2 |[M:4/4] x8 |] %16

